images/stars.svg

<svg width="120" height="25" viewBox="0 0 120 25" fill="none" xmlns="http://www.w3.org/2000/svg">
<g clip-path="url(#clip0_4_190)">
<path d="M12.0001 18.3154L16.1501 20.8908C16.9101 21.3628 17.8401 20.6651 17.6401 19.7827L16.5401 14.9398L20.2101 11.6769C20.8801 11.0818 20.5201 9.9532 19.6401 9.88137L14.8101 9.4607L12.9201 4.88455C12.5801 4.05346 11.4201 4.05346 11.0801 4.88455L9.19007 9.45044L4.36007 9.87111C3.48007 9.94294 3.12007 11.0716 3.79007 11.6667L7.46007 14.9295L6.36007 19.7724C6.16007 20.6548 7.09007 21.3525 7.85007 20.8805L12.0001 18.3154Z" fill="#FFB71A"/>
<path d="M84.0001 18.3154L88.1501 20.8908C88.9101 21.3628 89.8401 20.6651 89.6401 19.7827L88.5401 14.9398L92.2101 11.6769C92.8801 11.0818 92.5201 9.9532 91.6401 9.88137L86.8101 9.4607L84.9201 4.88455C84.5801 4.05346 83.4201 4.05346 83.0801 4.88455L81.1901 9.45044L76.3601 9.87111C75.4801 9.94294 75.1201 11.0716 75.7901 11.6667L79.4601 14.9295L78.3601 19.7724C78.1601 20.6548 79.0901 21.3525 79.8501 20.8805L84.0001 18.3154Z" fill="#FFB71A"/>
<path d="M60.0001 18.3154L64.1501 20.8908C64.9101 21.3628 65.8401 20.6651 65.6401 19.7827L64.5401 14.9398L68.2101 11.6769C68.8801 11.0818 68.5201 9.9532 67.6401 9.88137L62.8101 9.4607L60.9201 4.88455C60.5801 4.05346 59.4201 4.05346 59.0801 4.88455L57.1901 9.45044L52.3601 9.87111C51.4801 9.94294 51.1201 11.0716 51.7901 11.6667L55.4601 14.9295L54.3601 19.7724C54.1601 20.6548 55.0901 21.3525 55.8501 20.8805L60.0001 18.3154Z" fill="#FFB71A"/>
<path d="M36.0001 18.3154L40.1501 20.8908C40.9101 21.3628 41.8401 20.6651 41.6401 19.7827L40.5401 14.9398L44.2101 11.6769C44.8801 11.0818 44.5201 9.9532 43.6401 9.88137L38.8101 9.4607L36.9201 4.88455C36.5801 4.05346 35.4201 4.05346 35.0801 4.88455L33.1901 9.45044L28.3601 9.87111C27.4801 9.94294 27.1201 11.0716 27.7901 11.6667L31.4601 14.9295L30.3601 19.7724C30.1601 20.6548 31.0901 21.3525 31.8501 20.8805L36.0001 18.3154Z" fill="#FFB71A"/>
<path d="M108 18.3154L112.15 20.8908C112.91 21.3628 113.84 20.6651 113.64 19.7827L112.54 14.9398L116.21 11.6769C116.88 11.0818 116.52 9.9532 115.64 9.88137L110.81 9.4607L108.92 4.88455C108.58 4.05346 107.42 4.05346 107.08 4.88455L105.19 9.45044L100.36 9.87111C99.48 9.94294 99.12 11.0716 99.79 11.6667L103.46 14.9295L102.36 19.7724C102.16 20.6548 103.09 21.3525 103.85 20.8805L108 18.3154Z" fill="#FFB71A"/>
</g>
<defs>
<clipPath id="clip0_4_190">
<rect width="120" height="24.625" fill="white" transform="translate(0 0.3396)"/>
</clipPath>
</defs>
</svg>

<svg xmlns="http://www.w3.org/2000/svg" width="120" height="25" fill="none"><g fill="#FFB71A" clip-path="url(#a)"><path d="m12 18.315 4.15 2.576c.76.472 1.69-.226 1.49-1.108l-1.1-4.843 3.67-3.263c.67-.595.31-1.724-.57-1.796l-4.83-.42-1.89-4.576a.99.99 0 0 0-1.84 0L9.19 9.45l-4.83.421c-.88.072-1.24 1.2-.57 1.796l3.67 3.263-1.1 4.842c-.2.883.73 1.58 1.49 1.109L12 18.315ZM84 18.315l4.15 2.576c.76.472 1.69-.226 1.49-1.108l-1.1-4.843 3.67-3.263c.67-.595.31-1.724-.57-1.796l-4.83-.42-1.89-4.576a.99.99 0 0 0-1.84 0L81.19 9.45l-4.83.421c-.88.072-1.24 1.2-.57 1.796l3.67 3.263-1.1 4.842c-.2.883.73 1.58 1.49 1.109L84 18.315ZM60 18.315l4.15 2.576c.76.472 1.69-.226 1.49-1.108l-1.1-4.843 3.67-3.263c.67-.595.31-1.724-.57-1.796l-4.83-.42-1.89-4.576a.99.99 0 0 0-1.84 0L57.19 9.45l-4.83.421c-.88.072-1.24 1.2-.57 1.796l3.67 3.263-1.1 4.842c-.2.883.73 1.58 1.49 1.109L60 18.315ZM36 18.315l4.15 2.576c.76.472 1.69-.226 1.49-1.108l-1.1-4.843 3.67-3.263c.67-.595.31-1.724-.57-1.796l-4.83-.42-1.89-4.576a.99.99 0 0 0-1.84 0L33.19 9.45l-4.83.421c-.88.072-1.24 1.2-.57 1.796l3.67 3.263-1.1 4.842c-.2.883.73 1.58 1.49 1.109L36 18.315ZM108 18.315l4.15 2.576c.76.472 1.69-.226 1.49-1.108l-1.1-4.843 3.67-3.263c.67-.595.31-1.724-.57-1.796l-4.83-.42-1.89-4.576a.99.99 0 0 0-1.84 0l-1.89 4.565-4.83.421c-.88.072-1.24 1.2-.57 1.796l3.67 3.263-1.1 4.842c-.2.883.73 1.58 1.49 1.109l4.15-2.566Z"/></g><defs><clipPath id="a"><path fill="#fff" d="M0 .34h120v24.625H0z"/></clipPath></defs></svg>
